X: 5855
T: Calliope House
R: jig
M: 6/8
K: Dmajor
|:dAA fAA|eAA fAA|Bee e2d|efd BdB|ABA A2F|
A2B d2e|1 faf fed|e3- eAA:|2 faf edB|d3- dfg||
|:a2a faa|eaa faa|g3 fgf|efe edB|ABA A2F|
A2B d2e|1 faf fed|e3- efg:|2 faf edB|d3- dAA||

